svg/volume-off.svg

<svg width="24" height="24" viewBox="0 0 24 24" fill="none" xmlns="http://www.w3.org/2000/svg">
<path d="M13.4179 2.0915C13.7727 2.25469 14 2.60948 14 3.00001V21C14 21.3905 13.7727 21.7453 13.4179 21.9085C13.0631 22.0717 12.6457 22.0134 12.3492 21.7593L5.63008 16H3C2.44772 16 2 15.5523 2 15V9.00001C2 8.44773 2.44772 8.00001 3 8.00001H5.63008L12.3492 2.24076C12.6457 1.9866 13.0631 1.92832 13.4179 2.0915ZM12 5.17423L6.65079 9.75927C6.46955 9.91462 6.23871 10 6 10H4V14H6C6.23871 14 6.46955 14.0854 6.65079 14.2408L12 18.8258V5.17423ZM16.2929 9.29291C16.6834 8.90238 17.3166 8.90238 17.7071 9.29291L19 10.5858L20.2929 9.29291C20.6834 8.90238 21.3166 8.90238 21.7071 9.29291C22.0976 9.68343 22.0976 10.3166 21.7071 10.7071L20.4142 12L21.7071 13.2929C22.0976 13.6834 22.0976 14.3166 21.7071 14.7071C21.3166 15.0976 20.6834 15.0976 20.2929 14.7071L19 13.4142L17.7071 14.7071C17.3166 15.0976 16.6834 15.0976 16.2929 14.7071C15.9024 14.3166 15.9024 13.6834 16.2929 13.2929L17.5858 12L16.2929 10.7071C15.9024 10.3166 15.9024 9.68343 16.2929 9.29291Z" fill="#0D0D0D"/>
</svg>

<svg width="24" height="24" fill="none" xmlns="http://www.w3.org/2000/svg"><path d="M13.418 2.091A1 1 0 0114 3v18a1 1 0 01-1.65.76L5.63 16H3a1 1 0 01-1-1V9a1 1 0 011-1h2.63l6.72-5.76a1 1 0 011.068-.149zM12 5.175L6.65 9.76A1 1 0 016 10H4v4h2a1 1 0 01.65.24L12 18.827V5.174zm4.293 4.119a1 1 0 011.414 0L19 10.586l1.293-1.293a1 1 0 111.414 1.414L20.414 12l1.293 1.293a1 1 0 01-1.414 1.414L19 13.414l-1.293 1.293a1 1 0 01-1.414-1.414L17.586 12l-1.293-1.293a1 1 0 010-1.414z" fill="#0D0D0D"/></svg>
